lib/logo_tmp/nrk-logo-nrk-klassisk-title-below.svg

<svg width="71" height="36" viewBox="0 0 71 36" fill="none" xmlns="http://www.w3.org/2000/svg">
<path d="M0 15.0033V1.00459H4.59339V15.0033H0ZM10.8428 3.23256L13.4844 15.0033H8.45737L5.30307 1.00459H8.12254C8.76907 0.996197 9.39641 1.22411 9.88691 1.64544C10.3782 2.04909 10.7158 2.60946 10.8428 3.23256ZM14.1744 15.0033V1.00459H18.7678V15.0033H14.1744ZM22.2372 6.3281C21.7422 6.33292 21.2552 6.20342 20.828 5.95344C20.4064 5.70979 20.0563 5.3596 19.8127 4.93801C19.5624 4.5107 19.4329 4.02354 19.4378 3.52835C19.4321 3.03619 19.5618 2.55193 19.8127 2.12848C20.0589 1.71147 20.4086 1.36509 20.828 1.12292C21.2553 0.873236 21.7423 0.74375 22.2372 0.748264C22.7292 0.742965 23.2133 0.872567 23.6369 1.12292C24.0521 1.36721 24.3981 1.7133 24.6424 2.12848C24.893 2.55204 25.0226 3.03623 25.0172 3.52835C25.0218 4.0235 24.8923 4.51058 24.6424 4.93801C24.4007 5.35775 24.0542 5.70764 23.6369 5.95344C23.2133 6.20429 22.7289 6.33392 22.2366 6.3281H22.2372ZM25.7269 15.0033V1.00459H30.3207V15.0033H25.7269ZM36.136 8.65459C36.1489 8.66817 36.2475 8.82918 36.4317 9.13763C36.6159 9.44609 36.8558 9.84045 37.1513 10.3207C37.447 10.8006 37.759 11.3099 38.0874 11.8486C38.4157 12.3873 38.7247 12.8967 39.0143 13.3767C39.3028 13.8567 39.6313 14.3989 40 15.0033H34.9531C34.6375 14.4907 34.3515 14.0274 34.0952 13.6133C33.8389 13.1993 33.5665 12.7523 33.2778 12.2726C32.9884 11.7932 32.7024 11.3266 32.4196 10.8727C32.1368 10.4188 31.8938 10.0212 31.6905 9.67988C31.4863 9.33835 31.3449 9.10829 31.2663 8.98977C31.0713 8.69567 30.9559 8.35599 30.9315 8.00395C30.951 7.66607 31.0597 7.33946 31.2466 7.05728C31.3254 6.92583 31.47 6.69248 31.6803 6.3573C31.8906 6.02212 32.137 5.62454 32.4196 5.16449C32.7021 4.70444 32.9882 4.23452 33.2778 3.75475C33.5674 3.27499 33.8398 2.82476 34.0952 2.40414C34.3519 1.98396 34.6379 1.51733 34.9531 1.00427H40L36.0962 7.37273C35.9754 7.56181 35.9073 7.77972 35.8991 8.00395C35.9121 8.23936 35.9942 8.46569 36.1353 8.65459H36.136Z" fill="white"/>
<path d="M10.616 21.015H8.15399L2.80337 27.1798H2.06807V21.015H0V34.999H2.06807V28.6767H2.13763L7.9574 35.0187L10.7739 34.9987L4.09703 28.0658L10.616 21.015Z" fill="white"/>
<path d="M15.4512 33.551C15.3826 33.5585 15.3136 33.5619 15.2445 33.5612C15.0962 33.5655 14.9486 33.5386 14.8115 33.4821C14.6921 33.429 14.5898 33.3437 14.5161 33.2359C14.4305 33.1083 14.3734 32.9639 14.3486 32.8124C14.3132 32.611 14.2967 32.4067 14.2994 32.2021V20.1287L12.2904 20.4241V33.0885C12.2821 33.4204 12.3355 33.751 12.448 34.0634C12.5424 34.3172 12.6981 34.5439 12.901 34.7232C13.1032 34.8965 13.3423 35.0212 13.6002 35.0876C13.8864 35.1618 14.181 35.1982 14.4766 35.1959C14.6345 35.1959 14.7852 35.1894 14.9297 35.1759C15.0741 35.1624 15.2153 35.1431 15.3531 35.1171C15.491 35.0912 15.6059 35.0646 15.6978 35.0383L15.8947 33.4821C15.816 33.4956 15.7372 33.5088 15.6584 33.5214C15.5796 33.5341 15.5105 33.544 15.4512 33.551Z" fill="white"/>
<path d="M26.4317 33.7582C26.2877 33.7714 26.1427 33.7496 26.0089 33.6947C25.8752 33.6397 25.7567 33.5533 25.6635 33.4427C25.4808 33.1272 25.4049 32.7613 25.4469 32.3992L25.4862 28.3418C25.4906 27.9164 25.4376 27.4923 25.3287 27.081C25.2329 26.7205 25.0728 26.3803 24.856 26.0768C24.637 25.7799 24.3586 25.5318 24.0386 25.3481C23.6671 25.1368 23.2651 24.984 22.847 24.8951C22.3359 24.7847 21.814 24.7318 21.291 24.7375C20.8763 24.7373 20.462 24.7636 20.0506 24.8163C19.6617 24.8652 19.2765 24.9407 18.898 25.0425C18.5471 25.1379 18.2019 25.2531 17.864 25.3875L17.6277 27.0616C17.9559 26.943 18.2678 26.8445 18.5632 26.7662C18.8587 26.6878 19.1442 26.6222 19.42 26.5692C19.6901 26.5174 19.963 26.4812 20.2373 26.4609C20.5063 26.4412 20.7723 26.4313 21.0354 26.4313C21.4369 26.4227 21.8377 26.4691 22.2266 26.5692C22.5105 26.6402 22.7715 26.7826 22.9849 26.9828C23.1749 27.1775 23.3107 27.4184 23.3788 27.6817C23.4629 28.0065 23.5028 28.3412 23.4974 28.6766L23.495 29.171L21.1926 29.3266C20.4052 29.3486 19.6293 29.5225 18.9079 29.8387C18.3679 30.0749 17.9018 30.4526 17.5587 30.9318C17.2675 31.3582 17.1129 31.8631 17.1156 32.3794C17.1119 32.8638 17.2304 33.3413 17.4603 33.7677C17.7011 34.206 18.0636 34.5652 18.5041 34.802C19.0414 35.0815 19.6419 35.2173 20.2472 35.196C20.8144 35.2091 21.379 35.1154 21.9115 34.9199C22.372 34.7396 22.7933 34.4721 23.1523 34.132C23.2886 34.0012 23.4178 33.8634 23.5397 33.7191C23.578 33.9231 23.65 34.1192 23.753 34.2995C23.9286 34.601 24.1985 34.8363 24.5212 34.9691C24.8778 35.1123 25.2596 35.1825 25.6438 35.1756C25.762 35.1756 25.8769 35.1726 25.9885 35.1658C26.0981 35.1594 26.2069 35.143 26.3135 35.1168C26.4185 35.0902 26.5134 35.0673 26.5991 35.0479C26.6762 35.0304 26.7518 35.0073 26.8256 34.979L27.0422 33.659C26.9335 33.6965 26.8213 33.723 26.7074 33.7381C26.616 33.7504 26.5239 33.7571 26.4317 33.7582ZM23.1523 32.8718C22.9388 33.0405 22.7076 33.1857 22.463 33.3048C22.2193 33.4236 21.961 33.5098 21.6948 33.5612C21.4191 33.6143 21.1389 33.6407 20.8581 33.64C20.537 33.6492 20.2177 33.5887 19.9222 33.4627C19.6819 33.3582 19.4793 33.1829 19.3412 32.9602C19.2048 32.7241 19.1366 32.4547 19.1442 32.1822C19.1252 31.8539 19.2153 31.5286 19.4003 31.2568C19.6146 31.0065 19.9052 30.8335 20.2275 30.7644C20.7306 30.6458 21.2471 30.5928 21.7638 30.6068H23.4885L23.4796 32.5617C23.3796 32.6743 23.2702 32.7781 23.1523 32.8718Z" fill="white"/>
<path d="M35.1368 30.469C34.9352 30.2551 34.7029 30.0724 34.4475 29.927C34.1831 29.7758 33.9064 29.6473 33.6203 29.5429C33.4102 29.4773 33.2034 29.4083 32.9999 29.3361C32.7964 29.2639 32.5928 29.1983 32.3893 29.1392C32.1853 29.0801 31.9884 29.0177 31.7984 28.952C31.6198 28.8913 31.4455 28.8189 31.2765 28.7351C31.1147 28.649 30.9599 28.5502 30.8136 28.4396C30.6786 28.3379 30.5648 28.2107 30.4788 28.0651C30.3919 27.9157 30.3476 27.7455 30.3505 27.5727C30.3454 27.3829 30.3933 27.1954 30.489 27.0314C30.5918 26.8701 30.7342 26.7379 30.9026 26.6473C31.1087 26.5341 31.3314 26.4542 31.5624 26.4106C31.8512 26.3554 32.1448 26.3291 32.4388 26.3322C32.5829 26.3322 32.7409 26.3391 32.9113 26.3519C33.0816 26.3647 33.2691 26.388 33.4729 26.4208C33.6768 26.4537 33.8793 26.4963 34.0834 26.5485C34.2876 26.6007 34.4938 26.6604 34.7039 26.7258C34.8984 26.7859 35.089 26.8583 35.2744 26.9424L35.4129 25.3474C35.1632 25.2424 34.917 25.1504 34.6743 25.0714C34.4317 24.993 34.1852 24.9272 33.9357 24.8744C33.6921 24.8227 33.4454 24.7866 33.1971 24.766C32.9536 24.7464 32.7146 24.7365 32.4779 24.7365C31.9339 24.731 31.3913 24.7939 30.8629 24.9236C30.4112 25.0335 29.9815 25.22 29.5928 25.4751C29.2401 25.7081 28.952 26.0266 28.7554 26.4008C28.5499 26.8132 28.4484 27.2696 28.46 27.7303C28.4541 28.062 28.5074 28.3922 28.6176 28.7052C28.7114 28.9676 28.8514 29.2111 29.0312 29.4241C29.2064 29.625 29.4086 29.8006 29.6319 29.946C29.8645 30.0987 30.112 30.2273 30.3705 30.3301C30.5145 30.3826 30.6656 30.435 30.8238 30.4873C30.9814 30.5402 31.1354 30.5894 31.2867 30.6351C31.438 30.6807 31.5847 30.7273 31.7298 30.7729C31.8749 30.8186 32.0151 30.8652 32.153 30.9108C32.2908 30.9564 32.4254 30.9997 32.5567 31.0391C32.733 31.1014 32.9043 31.1771 33.0692 31.2653C33.2136 31.342 33.349 31.4346 33.4729 31.5414C33.5818 31.6368 33.6691 31.7543 33.729 31.8861C33.7888 32.0225 33.8189 32.1701 33.8173 32.319C33.8243 32.4647 33.7988 32.6101 33.7426 32.7447C33.6864 32.8793 33.6009 32.9996 33.4923 33.097C33.2485 33.3009 32.9572 33.4399 32.6454 33.5011C32.2801 33.5816 31.907 33.6211 31.5329 33.619C31.2989 33.6175 31.0653 33.6011 30.8334 33.5701C30.5775 33.5372 30.3085 33.4913 30.0262 33.4322C29.7439 33.3731 29.4549 33.3009 29.1595 33.2155C28.8638 33.1302 28.5651 33.035 28.2634 32.9299L28.3418 34.6041C28.683 34.7225 28.9949 34.8176 29.2774 34.8896C29.5599 34.9616 29.8292 35.0241 30.0852 35.0771C30.3318 35.1283 30.5819 35.1612 30.8334 35.1756C31.0763 35.1892 31.3225 35.1958 31.5719 35.1956C32.1214 35.1984 32.6696 35.1422 33.207 35.0279C33.6801 34.9319 34.1331 34.7554 34.5463 34.5059C34.9187 34.2785 35.2271 33.9601 35.4425 33.5806C35.6678 33.1637 35.7797 32.6949 35.7668 32.2212C35.7752 31.8757 35.7185 31.5318 35.5997 31.2072C35.4938 30.9339 35.3367 30.6834 35.1368 30.469Z" fill="white"/>
<path d="M44.3739 30.469C44.1722 30.2552 43.9398 30.0725 43.6845 29.927C43.42 29.7758 43.1432 29.6473 42.8569 29.5429C42.6468 29.4773 42.4401 29.4083 42.2366 29.3361C42.033 29.2639 41.8295 29.1983 41.6259 29.1392C41.4224 29.0801 41.2255 29.0177 41.0351 28.952C40.8565 28.8913 40.6822 28.8188 40.5132 28.7351C40.3513 28.649 40.1965 28.5502 40.0503 28.4397C39.9153 28.338 39.8017 28.2107 39.7158 28.0651C39.6288 27.9158 39.5844 27.7455 39.5875 27.5727C39.5822 27.3829 39.6301 27.1954 39.7256 27.0314C39.8282 26.87 39.9707 26.7377 40.1392 26.6473C40.3453 26.5341 40.568 26.4542 40.799 26.4107C41.0877 26.3554 41.3813 26.3291 41.6752 26.3322C41.8197 26.3322 41.9772 26.3391 42.1482 26.3519C42.3193 26.3647 42.5057 26.388 42.7095 26.4208C42.9134 26.4537 43.1163 26.4963 43.3198 26.5485C43.5234 26.6007 43.7301 26.6604 43.9405 26.7258C44.1352 26.7859 44.3259 26.8583 44.5114 26.9424L44.6496 25.3474C44.3999 25.2424 44.1537 25.1504 43.911 25.0714C43.6684 24.9929 43.4218 24.9272 43.1724 24.8744C42.9287 24.8227 42.682 24.7866 42.4338 24.7661C42.1904 24.7464 41.9508 24.7365 41.7149 24.7365C41.1708 24.731 40.6283 24.7938 40.0999 24.9236C39.648 25.0334 39.2182 25.2199 38.8295 25.4751C38.4768 25.7081 38.1889 26.0266 37.9925 26.4008C37.7865 26.8131 37.685 27.2696 37.697 27.7303C37.691 28.0621 37.7445 28.3923 37.8549 28.7052C37.9483 28.9678 38.0884 29.2114 38.2685 29.4241C38.4435 29.6251 38.6457 29.8008 38.8692 29.946C39.1018 30.0987 39.3493 30.2274 39.6078 30.3301C39.7518 30.3826 39.9028 30.435 40.0608 30.4873C40.2183 30.5402 40.3723 30.5894 40.5237 30.6351C40.675 30.6807 40.822 30.7273 40.9665 30.773C41.1109 30.8186 41.2521 30.8652 41.3899 30.9108C41.5278 30.9564 41.6624 30.9998 41.794 31.0391C41.9701 31.1014 42.1412 31.1771 42.3058 31.2653C42.4505 31.3419 42.586 31.4345 42.7099 31.5414C42.8188 31.6367 42.906 31.7542 42.9656 31.8861C43.026 32.0224 43.0563 32.17 43.0546 32.3191C43.0616 32.4648 43.0361 32.6102 42.9798 32.7448C42.9235 32.8794 42.8379 32.9997 42.7293 33.097C42.4855 33.3009 42.1942 33.4399 41.8823 33.5011C41.517 33.5817 41.1439 33.6212 40.7699 33.619C40.536 33.6175 40.3024 33.6011 40.0706 33.5701C39.8146 33.5372 39.5454 33.4913 39.2631 33.4322C38.9808 33.3731 38.6919 33.3009 38.3962 33.2155C38.101 33.1302 37.8024 33.035 37.5004 32.9299L37.5792 34.6041C37.9201 34.7225 38.2319 34.8177 38.5147 34.8897C38.7974 34.9617 39.0666 35.0241 39.3222 35.0771C39.5689 35.1283 39.8191 35.1612 40.0706 35.1756C40.3133 35.1892 40.5595 35.1958 40.8092 35.1956C41.3585 35.1985 41.9064 35.1422 42.4436 35.0279C42.9167 34.932 43.3698 34.7555 43.783 34.5059C44.1555 34.2786 44.4641 33.9602 44.6794 33.5806C44.9049 33.1637 45.0169 32.695 45.0041 32.2212C45.0124 31.8757 44.9556 31.5318 44.8367 31.2072C44.7309 30.9339 44.5738 30.6833 44.3739 30.469Z" fill="white"/>
<path d="M49.1107 20.6309C48.9063 20.506 48.6709 20.4412 48.4315 20.4438C48.1889 20.4419 47.9505 20.5066 47.7422 20.6309C47.5368 20.7511 47.3643 20.9203 47.2402 21.1233C47.115 21.3275 47.05 21.563 47.0528 21.8025C47.0509 22.0451 47.1157 22.2836 47.2402 22.4918C47.3606 22.6978 47.5339 22.8678 47.7422 22.9842C47.9526 23.1023 48.1902 23.1634 48.4315 23.1615C48.6696 23.1642 48.9042 23.103 49.1107 22.9842C49.3132 22.8668 49.4801 22.6967 49.5935 22.4918C49.7116 22.2814 49.7728 22.0438 49.7708 21.8025C49.7735 21.5643 49.7123 21.3297 49.5935 21.1233C49.4764 20.9212 49.3104 20.7519 49.1107 20.6309Z" fill="white"/>
<path d="M47.3873 34.9987H49.3963V24.7569L47.3873 25.0523V34.9987Z" fill="white"/>
<path d="M58.6926 30.469C58.491 30.2551 58.2587 30.0724 58.0033 29.927C57.7388 29.7758 57.462 29.6473 57.1758 29.5429C56.9659 29.4773 56.7591 29.4083 56.5556 29.3361C56.3521 29.2639 56.1485 29.1983 55.9448 29.1392C55.7413 29.0801 55.5443 29.0177 55.3539 28.952C55.1754 28.8913 55.0011 28.8189 54.8322 28.7351C54.6702 28.6491 54.5154 28.5503 54.3691 28.4397C54.2341 28.3379 54.1205 28.2107 54.0346 28.0651C53.9476 27.9158 53.9032 27.7455 53.9063 27.5727C53.9011 27.3829 53.9489 27.1954 54.0444 27.0314C54.1471 26.87 54.2895 26.7377 54.4581 26.6473C54.6641 26.5341 54.8868 26.4542 55.1179 26.4107C55.4067 26.3554 55.7003 26.3291 55.9943 26.3322C56.1384 26.3322 56.2963 26.3391 56.467 26.3519C56.6377 26.3647 56.8245 26.388 57.0284 26.4208C57.2322 26.4537 57.4351 26.4963 57.6386 26.5485C57.8421 26.6007 58.0489 26.6604 58.2594 26.7258C58.454 26.7859 58.6447 26.8583 58.8302 26.9424L58.9684 25.3474C58.7187 25.2424 58.4725 25.1504 58.2298 25.0714C57.9872 24.9929 57.7407 24.9271 57.4912 24.8744C57.2475 24.8227 57.0008 24.7866 56.7526 24.7661C56.5095 24.7464 56.2699 24.7365 56.0337 24.7365C55.4897 24.731 54.947 24.7938 54.4186 24.9236C53.9667 25.0334 53.5371 25.2199 53.1483 25.4751C52.7957 25.7081 52.5077 26.0266 52.3112 26.4008C52.1053 26.8131 52.0039 27.2696 52.0158 27.7303C52.0098 28.0621 52.0632 28.3923 52.1737 28.7052C52.2671 28.9678 52.4072 29.2114 52.5873 29.4241C52.7624 29.6251 52.9646 29.8007 53.1881 29.946C53.4206 30.0987 53.6681 30.2274 53.9266 30.3301C54.0706 30.3826 54.2216 30.435 54.3796 30.4873C54.5376 30.5396 54.6919 30.5889 54.8424 30.6351C54.993 30.6815 55.1406 30.7274 55.2853 30.773C55.4299 30.8185 55.5711 30.8644 55.7088 30.9108C55.8466 30.957 55.9813 30.9998 56.1128 31.0391C56.289 31.1014 56.4602 31.1771 56.6249 31.2653C56.7695 31.3419 56.9049 31.4345 57.0287 31.5414C57.1376 31.6366 57.2249 31.7542 57.2844 31.8861C57.3448 32.0224 57.3751 32.17 57.3734 32.3191C57.3804 32.4647 57.3548 32.6102 57.2986 32.7447C57.2424 32.8793 57.1569 32.9997 57.0483 33.097C56.8044 33.3009 56.5131 33.4398 56.2012 33.5011C55.8359 33.5817 55.4627 33.6212 55.0886 33.619C54.8548 33.6175 54.6213 33.6012 54.3895 33.5701C54.1334 33.5372 53.8643 33.4913 53.5819 33.4322C53.2996 33.3731 53.0106 33.3009 52.715 33.2155C52.42 33.1302 52.1214 33.035 51.8191 32.9299L51.8979 34.6041C52.2391 34.7225 52.551 34.8177 52.8335 34.8897C53.116 34.9617 53.3852 35.0241 53.641 35.0771C53.8877 35.1283 54.1379 35.1612 54.3895 35.1756C54.6322 35.1892 54.8783 35.1958 55.128 35.1956C55.6773 35.1985 56.2253 35.1422 56.7625 35.0279C57.2356 34.9319 57.6888 34.7554 58.1021 34.5059C58.4745 34.2785 58.7829 33.9601 58.9983 33.5806C59.2237 33.1637 59.3357 32.695 59.3229 32.2212C59.3312 31.8757 59.2744 31.5318 59.1555 31.2072C59.0497 30.9339 58.8926 30.6833 58.6926 30.469Z" fill="white"/>
<path d="M67.774 34.9987H70.3739L65.5963 29.6152L70.2754 24.9539H67.8134L64.4431 28.6567H63.7167V20.1284L61.7077 20.4238V34.9987H63.7167V30.1732H63.7495L67.774 34.9987Z" fill="white"/>
</svg>

<svg xmlns="http://www.w3.org/2000/svg" viewBox="0 0 71 36"><path fill="#fff" d="M0 15.003V1.005h4.593v13.998H0Zm10.843-11.77 2.641 11.77H8.457L5.303 1.005h2.82a2.655 2.655 0 0 1 1.764.64c.491.404.829.964.956 1.588Zm3.331 11.77V1.005h4.594v13.998h-4.594Zm8.063-8.675a2.737 2.737 0 0 1-1.409-.375 2.778 2.778 0 0 1-1.015-1.015 2.735 2.735 0 0 1-.375-1.41 2.685 2.685 0 0 1 .375-1.4 2.812 2.812 0 0 1 3.824-1.005c.415.244.761.59 1.005 1.005.251.424.38.908.375 1.4.005.496-.125.983-.375 1.41a2.8 2.8 0 0 1-1.005 1.015c-.424.251-.908.38-1.4.375Zm3.49 8.675V1.005h4.594v13.998h-4.594Zm10.409-6.348c.013.013.111.174.296.483.184.308.424.702.72 1.183a377.185 377.185 0 0 1 1.862 3.056c.289.48.617 1.022.986 1.626h-5.047l-.858-1.39c-.256-.414-.529-.86-.817-1.34-.29-.48-.576-.946-.858-1.4a71.06 71.06 0 0 1-.73-1.193 21.112 21.112 0 0 0-.424-.69 2.04 2.04 0 0 1-.334-.986c.019-.338.128-.665.315-.947.078-.131.223-.365.433-.7a216.7 216.7 0 0 0 1.598-2.603l.817-1.35.858-1.4H40l-3.904 6.369c-.12.189-.189.407-.197.63.013.236.095.463.236.652h.001ZM10.616 21.015H8.154l-5.35 6.165h-.736v-6.165H0v13.984h2.068v-6.322h.07l5.82 6.342 2.816-.02-6.677-6.933 6.519-7.051ZM15.451 33.551a1.74 1.74 0 0 1-.207.01 1.056 1.056 0 0 1-.432-.079.705.705 0 0 1-.296-.246 1.07 1.07 0 0 1-.167-.424 3.276 3.276 0 0 1-.05-.61V20.13l-2.009.295V33.09a2.68 2.68 0 0 0 .158.974c.094.254.25.48.453.66.202.174.441.298.7.365.285.074.58.11.876.108a4.871 4.871 0 0 0 .876-.079c.138-.026.253-.052.345-.079l.197-1.556-.237.04a5.036 5.036 0 0 1-.207.029ZM26.432 33.758a.898.898 0 0 1-.768-.315 1.693 1.693 0 0 1-.217-1.044l.04-4.057a4.735 4.735 0 0 0-.158-1.261c-.096-.36-.256-.7-.473-1.004a2.663 2.663 0 0 0-.817-.729 4.16 4.16 0 0 0-1.192-.453 7.008 7.008 0 0 0-1.556-.157c-.415 0-.829.026-1.24.078a8.54 8.54 0 0 0-1.153.227c-.35.095-.696.21-1.034.345l-.236 1.674c.328-.119.64-.218.935-.296.296-.078.581-.144.857-.197.27-.052.543-.088.817-.108.27-.02.535-.03.798-.03a4.4 4.4 0 0 1 1.192.138c.284.071.544.214.758.414.19.194.326.435.394.699.084.325.124.66.118.995l-.002.494-2.302.156a6.117 6.117 0 0 0-2.285.512 3.272 3.272 0 0 0-1.35 1.093 2.543 2.543 0 0 0-.442 1.447c-.004.485.114.962.344 1.389.241.438.604.797 1.044 1.034a3.51 3.51 0 0 0 1.743.394 4.526 4.526 0 0 0 1.665-.276 3.84 3.84 0 0 0 1.24-.788c.137-.13.266-.269.388-.413.038.204.11.4.213.58.176.302.445.537.768.67.357.143.739.213 1.123.207.118 0 .233-.003.345-.01.11-.007.218-.023.325-.05.105-.026.2-.049.285-.068.077-.018.153-.04.227-.069l.216-1.32a1.72 1.72 0 0 1-.335.08 2.27 2.27 0 0 1-.275.02Zm-3.28-.886a3.784 3.784 0 0 1-.689.433 3.09 3.09 0 0 1-.768.256c-.276.053-.556.08-.837.079-.321.01-.64-.051-.936-.177a1.288 1.288 0 0 1-.58-.503 1.473 1.473 0 0 1-.198-.778 1.491 1.491 0 0 1 .256-.925c.215-.25.505-.424.828-.493a5.99 5.99 0 0 1 1.536-.157h1.724l-.008 1.955c-.1.112-.21.216-.328.31ZM35.137 30.469a2.959 2.959 0 0 0-.69-.542 5.384 5.384 0 0 0-.827-.384c-.21-.066-.417-.135-.62-.207a11.007 11.007 0 0 0-.61-.197c-.205-.059-.402-.121-.592-.187a4.261 4.261 0 0 1-.521-.217 3.473 3.473 0 0 1-.463-.295 1.29 1.29 0 0 1-.335-.375.947.947 0 0 1-.128-.492 1.02 1.02 0 0 1 .138-.542 1.12 1.12 0 0 1 .414-.384 2.23 2.23 0 0 1 .66-.236 4.42 4.42 0 0 1 .876-.079 6.366 6.366 0 0 1 1.034.089c.204.033.406.075.61.128.205.052.41.111.62.177.195.06.386.132.571.216l.139-1.595a9.463 9.463 0 0 0-.739-.276 7.351 7.351 0 0 0-.738-.197 5.912 5.912 0 0 0-.739-.108 8.95 8.95 0 0 0-.72-.03 6.5 6.5 0 0 0-1.614.188c-.452.11-.881.296-1.27.551-.353.233-.641.552-.838.926a2.822 2.822 0 0 0-.295 1.33c-.006.331.047.661.158.974.093.263.233.506.413.72.175.2.378.376.6.521.233.153.481.281.74.384.144.053.295.105.453.157.157.053.311.102.463.148l.443.138c.145.046.285.092.423.138.138.045.272.089.404.128.176.062.347.138.512.226.145.077.28.17.404.276.109.096.196.213.256.345.06.137.09.284.088.433a.982.982 0 0 1-.325.778 1.886 1.886 0 0 1-.847.404c-.365.08-.738.12-1.112.118a5.547 5.547 0 0 1-.7-.049 10.45 10.45 0 0 1-.807-.138c-.282-.059-.571-.131-.866-.217-.296-.085-.595-.18-.897-.285l.079 1.674c.341.118.653.214.935.286.283.072.552.134.808.187.247.051.497.084.748.099.243.013.49.02.739.02a7.672 7.672 0 0 0 1.635-.168 4.21 4.21 0 0 0 1.34-.522c.372-.227.68-.546.896-.925.225-.417.337-.886.324-1.36a2.755 2.755 0 0 0-.167-1.014 2.302 2.302 0 0 0-.463-.738ZM44.374 30.469a2.969 2.969 0 0 0-.69-.542 5.384 5.384 0 0 0-.827-.384c-.21-.066-.417-.135-.62-.207a11.01 11.01 0 0 0-.611-.197c-.204-.059-.4-.121-.59-.187a4.277 4.277 0 0 1-.523-.217 3.47 3.47 0 0 1-.463-.295 1.289 1.289 0 0 1-.334-.375.944.944 0 0 1-.129-.492 1.02 1.02 0 0 1 .139-.542c.102-.161.245-.293.413-.384.206-.113.429-.193.66-.236a4.41 4.41 0 0 1 .876-.079 6.383 6.383 0 0 1 1.035.089c.203.033.406.075.61.128.203.052.41.111.62.177.195.06.386.132.571.216l.139-1.595a9.463 9.463 0 0 0-.739-.276 7.332 7.332 0 0 0-.739-.197 5.899 5.899 0 0 0-.738-.108 8.91 8.91 0 0 0-.72-.03 6.494 6.494 0 0 0-1.614.188c-.452.11-.882.296-1.27.551-.353.233-.641.552-.837.926a2.81 2.81 0 0 0-.296 1.33 2.78 2.78 0 0 0 .158.974c.093.263.233.506.414.72.175.2.377.376.6.521.233.153.48.281.739.384.144.053.295.105.453.157.157.053.311.102.463.148l.443.138.423.138c.138.045.272.089.404.128.176.062.347.138.512.226.145.077.28.17.404.276a1.012 1.012 0 0 1 .345.778.981.981 0 0 1-.326.778 1.886 1.886 0 0 1-.847.404c-.365.08-.738.12-1.112.118a5.544 5.544 0 0 1-.7-.049 10.45 10.45 0 0 1-.807-.138c-.282-.059-.571-.131-.867-.217-.295-.085-.594-.18-.896-.285l.08 1.674c.34.118.652.214.935.286.282.072.552.134.807.187.247.051.497.084.749.099.242.013.489.02.738.02a7.659 7.659 0 0 0 1.635-.168 4.207 4.207 0 0 0 1.339-.522c.373-.227.681-.546.896-.925.226-.417.338-.886.325-1.36a2.755 2.755 0 0 0-.167-1.014 2.3 2.3 0 0 0-.463-.738ZM49.11 20.63a1.276 1.276 0 0 0-.678-.186 1.325 1.325 0 0 0-.69.187c-.205.12-.378.29-.502.492-.125.204-.19.44-.187.68-.002.242.063.48.187.689.12.206.294.376.502.492.21.118.448.18.69.177.238.003.472-.058.679-.177.202-.117.37-.287.483-.492.118-.21.179-.448.177-.69a1.331 1.331 0 0 0-.178-.679 1.391 1.391 0 0 0-.482-.492ZM47.387 34.999h2.01V24.757l-2.01.295V35ZM58.693 30.469a2.959 2.959 0 0 0-.69-.542 5.388 5.388 0 0 0-.827-.384c-.21-.066-.417-.135-.62-.207a10.959 10.959 0 0 0-.611-.197c-.204-.059-.4-.121-.591-.187a4.258 4.258 0 0 1-.522-.217 3.452 3.452 0 0 1-.463-.295 1.29 1.29 0 0 1-.334-.375.944.944 0 0 1-.129-.492 1.02 1.02 0 0 1 .138-.542c.103-.161.245-.293.414-.384.206-.113.429-.193.66-.236.289-.056.582-.082.876-.079a6.378 6.378 0 0 1 1.034.089c.204.033.407.075.61.128.204.052.41.111.621.177.195.06.386.132.571.216l.138-1.595a9.463 9.463 0 0 0-.738-.276 7.298 7.298 0 0 0-.739-.197 5.899 5.899 0 0 0-.738-.108 8.898 8.898 0 0 0-.72-.03 6.495 6.495 0 0 0-1.614.188c-.452.11-.882.296-1.27.551-.353.233-.641.552-.838.926a2.813 2.813 0 0 0-.295 1.33c-.006.331.047.661.158.974.093.263.233.506.413.72.175.2.378.376.601.521.233.153.48.281.739.384a22.29 22.29 0 0 0 .916.305l.442.138c.145.046.286.091.424.138.138.046.272.089.404.128.176.062.347.138.512.226.145.077.28.17.404.276a1.01 1.01 0 0 1 .344.778.982.982 0 0 1-.325.778 1.888 1.888 0 0 1-.847.404c-.365.08-.738.12-1.112.118a5.524 5.524 0 0 1-.7-.049 10.452 10.452 0 0 1-.807-.138c-.282-.059-.571-.131-.867-.217-.295-.085-.594-.18-.896-.285l.079 1.674c.341.118.653.214.935.286.283.072.552.134.808.187.247.051.497.084.748.099.243.013.49.02.739.02a7.66 7.66 0 0 0 1.635-.168 4.213 4.213 0 0 0 1.34-.522c.371-.227.68-.546.895-.925.226-.417.338-.886.325-1.36a2.755 2.755 0 0 0-.167-1.014 2.298 2.298 0 0 0-.463-.738ZM67.774 34.999h2.6l-4.778-5.384 4.68-4.661h-2.463l-3.37 3.703h-.726v-8.529l-2.01.296v14.575h2.01v-4.826h.032L67.775 35Z"/></svg>
